X:438
T:French Ambassador,The. (p).1701.PLFD.438
M:4/4
L:1/4
Q:1/2=85
S:Playford, Dancing Master,11th Ed.,1701.
O:England
Z:Chris Partington.
K:Bb
f|dBFA|B3f|gfg/a/b|a3g|fdef|
gecg|_ag/f/ =e/f/g/e/|f3:||:f|g>fga|bddd|
g>aba/g/|^f3g|gddc/d/|eccc/d/|e/d/c/B/A>G|
G3B|A>B A/B/A/B/|cFFF|B>cdc/B/|
f3g/a/|bdgc|fBAf|dc/B/FA|B3:|
